X: 143
T:The Maids of Mitchelsto
R:reel
M:4/4
L:1/8
K:Ddor
D2AG EGG2|A2GA cAGE|D2AG EGG2|AcGE EDCE|
D2AG EGG2|A2GA c2GE|DAAG EDEG|A2GE EDD2||
 (3EFG AB c2BG|Adde f2ed|cAGE F3G|AcGE EDDF|
 (3EFG AB c2EG|Adde f2ed|cAGE F3G| (3ABc Bd cAGE||D8||
